X: 1
T: Willie Kennedy's Strathspey
C: Brenda Stubbert
R: strathspey
Z: 2014 John Chambers <jc:trillian.mit.edu>
S: printed page from Concord Slow Scottish Session collection
M: C
L: 1/16
K: D
|:\
 F3A AAA2 TB3A Fd3 | FA3  A3f  e3d ef3 |\
 F3A AAA2 TB3A FA3 | df3 Te3d TB4  Bd3 :|
 A3d ddd2 Tf3e df3 | Be3  e3f  g3f ef3 |\
 A3d ddd2 Tf3e df3 | e3d  ef3 Te3d B3G |]
 A3d ddd2 Tf3e df3 | Be3  e3f  g3f e3g |\
Tf3e df3  Te3d c3A | BG3  A3F  E3F GE3 |]
